img/svg/editors/pencil-square.svg

<svg width="24" height="24" viewBox="0 0 24 24" fill="none" xmlns="http://www.w3.org/2000/svg">
<path d="M3.75 1.92871H13.5C13.5852 1.92871 13.6673 1.96316 13.7275 2.02344C13.7877 2.0837 13.8213 2.16582 13.8213 2.25098C13.8212 2.33595 13.7875 2.41738 13.7275 2.47754C13.6673 2.53782 13.5852 2.57227 13.5 2.57227H3.75C3.43756 2.57227 3.13799 2.69615 2.91699 2.91699C2.69597 3.13802 2.57129 3.4384 2.57129 3.75098V20.251C2.57139 20.5634 2.69606 20.863 2.91699 21.084C3.138 21.3049 3.43751 21.4287 3.75 21.4287H20.25C20.5625 21.4287 20.862 21.3049 21.083 21.084C21.3039 20.863 21.4286 20.5634 21.4287 20.251V11.251C21.4287 11.1658 21.4623 11.0837 21.5225 11.0234C21.5827 10.9632 21.6648 10.9287 21.75 10.9287C21.8352 10.9287 21.9173 10.9632 21.9775 11.0234C22.0377 11.0837 22.0713 11.1658 22.0713 11.251V20.251C22.0712 20.7338 21.8794 21.1966 21.5381 21.5381C21.1965 21.8797 20.7331 22.0723 20.25 22.0723H3.75C3.26693 22.0723 2.8035 21.8797 2.46191 21.5381C2.12061 21.1966 1.92881 20.7338 1.92871 20.251V3.75098C1.92871 3.26799 2.12045 2.80446 2.46191 2.46289C2.8035 2.12131 3.26693 1.92871 3.75 1.92871ZM20.0225 6.59473L10.1064 16.5127C10.071 16.5478 10.0278 16.5743 9.98047 16.5898L9.97852 16.5908L6.45898 17.7637L7.63379 14.2451C7.64955 14.1977 7.67655 14.1545 7.71191 14.1191V14.1182L17.6279 4.2002L20.0225 6.59473ZM20.7832 1.17871C20.8684 1.17871 20.9505 1.2122 21.0107 1.27246L22.8242 3.08594V3.08789L22.9492 3.21289C23.0093 3.27314 23.043 3.35535 23.043 3.44043C23.0429 3.52538 23.0092 3.60682 22.9492 3.66699L21.6875 4.92871L19.2939 2.53516L20.5566 1.27246L20.5557 1.27148C20.6159 1.21151 20.6982 1.17872 20.7832 1.17871Z" fill="#FBFBFB" stroke="#FBFBFB" stroke-width="0.857143"/>
</svg>

<svg width="24" height="24" fill="none" xmlns="http://www.w3.org/2000/svg"><path d="M3.75 1.929h9.75a.322.322 0 010 .643H3.75a1.178 1.178 0 00-1.179 1.179v16.5a1.18 1.18 0 001.179 1.178h16.5a1.178 1.178 0 001.179-1.178v-9a.322.322 0 01.549-.228c.06.06.093.143.093.228v9a1.821 1.821 0 01-1.821 1.821H3.75a1.822 1.822 0 01-1.821-1.821v-16.5A1.822 1.822 0 013.75 1.929zm16.273 4.666l-9.917 9.918a.321.321 0 01-.126.077h0l-3.52 1.174 1.175-3.519a.323.323 0 01.078-.126v0L17.628 4.2l2.395 2.395zm.76-5.416c.085 0 .168.033.228.093l1.813 1.814v.002l.125.125a.323.323 0 010 .454l-1.262 1.262-2.393-2.394 1.263-1.263h-.001a.322.322 0 01.227-.093z" fill="#FBFBFB" stroke="#FBFBFB" stroke-width=".857"/></svg>
